X: 29239
T: New Irish
R: barndance
M: 4/4
K: Gmajor
|:(3def|g2 g>e d2 B2|c>Bc>d e4|d2 d>f a2 a2|b>c’b>a g2 b>a|
g2 g>e d2 B2|c>Bc>d e2- e>e|d2 f>e d>cB>A|G2 B2 G2:|
|:(3efg|a2 a2 a2- a>g|f2 d>f a2- a>a|e2 ^c>e a2 a2|f2 d>f a2 (3efg|
a2 a2 a2- a>g|f2 d>f a2- a>a|a>b^c’>b a>gf>e|d2 f2 d2:|
|:D2|G4-G2 e2|d4-d2 B2|=c2 c>B c2 A2|B2 B>_B =B2 D2|
G4-G2 e2|=c4- c2 ^c2|d2 f>e d>=cB>A|G2 B2 G2:|

